X:156
T:Sailor Laddie,The. RH.156
R:jig
S:Rev.R.Harrison’s MS,c1815,Cumbria
O:England
A:Temple Sowerby,Cumbria
Z:vmp.Simon Wilson. Review PJH, 2008.
M:6/8
L:1/8
Q:3/8=120
K:G
D|G2g dBG|FAAA2B|G2g dBG|Bde g2a|!
bag ede|aAA A2B|def gdc|BGG G2:|!
|:g/a/|bag ede|aAA A2g/a/|bag ege|def gdB|!
c2a B2g|aAA A2B|G2g ded|BGG G2:|

